packages/core/src/svgs/tokens/mono/DSRUN.svg

<svg width="24" height="24" viewBox="0 0 24 24" fill="none" xmlns="http://www.w3.org/2000/svg">
<path d="M8.9001 5.20588C9.51649 3.81449 10.5979 2.68103 11.9589 2C11.9589 3.84706 11.8236 4.32942 11.7531 4.34118C12.0236 4.36471 12.6412 4.44118 12.9883 4.57059C13.3589 4.20589 15.1295 3.76471 15.5295 3.76471C15.3335 4.45877 14.9032 5.06356 14.3119 5.47647C14.5471 5.62941 15.0413 6.08235 15.153 6.31176C15.3177 6.05294 16.3059 6.11764 16.606 6.11764C16.9177 5.30589 18.1472 4.92941 18.4354 4.92941C18.8766 4.19413 20.153 3.81176 20.5295 3.76471C20.4119 4.16471 19.8648 4.75294 19.5648 4.75294C19.3236 4.75294 19.0706 4.85295 18.9765 4.92941H19.4883C19.3648 5.25293 18.7765 5.77646 18.2118 5.77646C17.7589 5.77646 17.3765 6.04706 17.2471 6.11764H18.306C18.0824 6.7647 17.6707 6.82353 16.706 6.82353C15.9353 6.82353 15.4119 7.19411 15.2353 7.29412H17.0354C16.853 8.11176 15.6824 8.05882 15.1118 8.01175C15.2649 8.07058 15.6412 8.18823 15.9294 8.18823C16.2236 8.18823 16.5001 8.07058 16.606 8.01175C16.6589 8.50587 17.7824 9.4941 18.5354 10.1059C19.2883 10.7177 19.9472 10.8999 20.106 11.4C20.2236 11.7883 20.1412 12.6235 19.7177 13.4941C19.5589 13.8176 19.2765 13.8942 18.5413 14.3765C17.7942 14.8706 17.7118 15.0412 17.4825 15.0412C17.2589 15.0412 16.9531 14.9411 16.6942 14.7177C16.0941 14.0823 14.8766 14.0353 14.6118 14.0353C14.3531 14.0353 13.9354 14.0941 13.659 14.247C13.659 14.8706 14.4354 16.9353 15.6766 17.6C16.5139 18.0188 17.2327 18.6411 17.7671 19.4099C18.3015 20.1786 18.6345 21.0691 18.7353 22C17.406 18.7235 13.3353 18.3353 12.1589 17.947C10.9825 17.5589 10.0118 15.6293 9.64716 14.9411C11.6883 16.7235 12.153 17.0411 13.4707 17.5882C10.7648 15.8941 9.96477 12.5765 9.9413 11.1176C10.6236 12.8941 11.2412 13.2235 13.4589 13.2235C15.8295 13.2235 16.9295 14.4411 17.3589 14.4411C17.7824 14.4411 17.8295 14.1824 18.3354 13.9117C18.7353 13.6883 19.0413 13.5 19.153 13.4353V13.1353C19.3118 12.9 19.6412 12.3706 19.6412 12.1C19.6412 11.7647 19.3942 11.4293 18.7648 11.4293C18.2648 11.4293 17.7236 11.8647 17.5883 12L17.9118 11.2294C17.8001 11.1117 17.4413 10.7352 16.853 10.1706C15.5295 8.7941 14.6177 8.25881 14.0296 8.01175C13.4354 7.75882 13.4119 7.55881 13.4119 7.18823C13.4119 6.81176 12.1295 5.96471 12.1295 5.77646C12.1295 5.58823 12.3059 5.51764 12.606 5.34118C10.9002 5.34118 9.74132 5.92353 9.37073 6.21177C9.52953 6.22353 9.82367 6.34117 9.9413 6.41176C8.98395 6.65551 8.09732 7.12098 7.35305 7.77058C7.28246 7.88822 6.79423 9.1941 6.79423 10.2647C6.79423 11.1235 6.66481 12.147 6.70599 12.5882C6.65305 12.5117 6.58835 12.3588 6.41188 12C6.41188 15.7883 8.17657 16.5176 8.17657 18.7646C8.18725 19.1826 8.08324 19.5954 7.87583 19.9583C7.66843 20.3214 7.36556 20.6206 7.00011 20.8235V20.2353C5.75893 21.7823 4.94716 22 4.05893 22C4.83541 21.7059 5.45306 20.8646 5.45306 20.1059C5.45306 19.4941 4.88246 18.594 4.64717 18.1765V19.0588C3.29423 17.7411 3.74717 15.2587 4.05893 14.0589C3.97071 14.2059 3.68247 14.5705 3.4707 14.9411C3.8354 8.15882 7.71776 5.68824 8.9001 5.20588Z" fill="white"/>
<path d="M11.7061 7.92383C11.7707 7.91207 13.3884 7.5709 13.4707 9.05912C13.0237 9.05912 12.1531 8.74147 11.7061 7.92383Z" fill="white"/>
</svg>

<svg xmlns="http://www.w3.org/2000/svg" width="24" height="24" fill="none" viewBox="0 0 24 24">
    <path fill="#fff" d="M8.9 5.206A6.55 6.55 0 0 1 11.96 2c0 1.847-.135 2.33-.206 2.341.27.024.888.1 1.235.23.37-.365 2.142-.806 2.542-.806a3.12 3.12 0 0 1-1.218 1.711c.235.153.73.606.841.836.165-.26 1.153-.194 1.453-.194.312-.812 1.541-1.189 1.83-1.189.44-.735 1.717-1.117 2.093-1.164-.117.4-.664.988-.964.988-.241 0-.494.1-.588.176h.511c-.123.324-.712.847-1.276.847-.453 0-.835.271-.965.342h1.059c-.224.647-.635.706-1.6.706-.77 0-1.294.37-1.47.47h1.8c-.183.818-1.354.765-1.924.718.153.059.53.176.817.176.295 0 .571-.117.677-.176.053.494 1.176 1.482 1.93 2.094.752.612 1.411.794 1.57 1.294.118.388.035 1.223-.388 2.094-.16.324-.442.4-1.177.883-.747.494-.83.664-1.058.664-.224 0-.53-.1-.789-.323-.6-.636-1.817-.683-2.082-.683-.259 0-.677.06-.953.212 0 .624.776 2.688 2.018 3.353a5.6 5.6 0 0 1 3.058 4.4c-1.329-3.276-5.4-3.665-6.576-4.053-1.177-.388-2.147-2.318-2.512-3.006 2.041 1.783 2.506 2.1 3.824 2.647-2.706-1.694-3.506-5.012-3.53-6.47.683 1.776 1.3 2.105 3.518 2.105 2.37 0 3.47 1.218 3.9 1.218.423 0 .47-.259.976-.53.4-.223.706-.411.818-.476v-.3c.159-.235.488-.764.488-1.035 0-.335-.247-.67-.876-.67-.5 0-1.041.435-1.177.57l.324-.77c-.112-.118-.47-.495-1.059-1.06-1.324-1.376-2.235-1.911-2.823-2.158-.595-.253-.618-.453-.618-.824 0-.376-1.283-1.223-1.283-1.412s.177-.258.477-.435c-1.706 0-2.865.583-3.235.87.159.013.453.13.57.2a6.3 6.3 0 0 0-2.588 1.36c-.07.117-.559 1.423-.559 2.494 0 .858-.13 1.882-.088 2.323-.053-.076-.118-.23-.294-.588 0 3.788 1.765 4.518 1.765 6.765A2.29 2.29 0 0 1 7 20.823v-.588C5.76 21.782 4.947 22 4.06 22c.776-.294 1.394-1.135 1.394-1.894 0-.612-.57-1.512-.806-1.93v.883c-1.353-1.318-.9-3.8-.588-5-.088.147-.377.511-.588.882.364-6.782 4.247-9.253 5.43-9.735"/>
    <path fill="#fff" d="M11.706 7.924c.065-.012 1.682-.353 1.765 1.135-.447 0-1.318-.318-1.765-1.135"/>
</svg>
